src/icons/target.icon.svg

<?xml version="1.0" encoding="UTF-8"?>
<svg width="24px" height="24px" viewBox="0 0 24 24" version="1.1" xmlns="http://www.w3.org/2000/svg" xmlns:xlink="http://www.w3.org/1999/xlink">
    <!-- Generator: Sketch 51.2 (57519) - http://www.bohemiancoding.com/sketch -->
    <title>target.icon</title>
    <desc>Created with Sketch.</desc>
    <defs></defs>
    <g id="target.icon" stroke="none" stroke-width="1" fill="none" fill-rule="evenodd">
        <path d="M7.03829787,16.9617021 C8.41135438,18.3035528 10.0652386,18.9744681 12,18.9744681 C13.9347614,18.9744681 15.5808443,18.2957515 16.9382979,16.9382979 C18.2957515,15.5808443 18.9744681,13.9347614 18.9744681,12 C18.9744681,10.0652386 18.2957515,8.41915572 16.9382979,7.06170213 C15.5808443,5.70424853 13.9347614,5.02553191 12,5.02553191 C10.0652386,5.02553191 8.41915572,5.70424853 7.06170213,7.06170213 C5.70424853,8.41915572 5.02553191,10.0652386 5.02553191,12 C5.02553191,13.9347614 5.69644719,15.5886456 7.03829787,16.9617021 Z M20.9404255,11.0170213 L23,11.0170213 L23,12.9829787 L20.9404255,12.9829787 C20.7219847,15.0737693 19.8638373,16.8680776 18.3659574,18.3659574 C16.8680776,19.8638373 15.0737693,20.7219847 12.9829787,20.9404255 L12.9829787,23 L11.0170213,23 L11.0170213,20.9404255 C8.92623068,20.7219847 7.13192238,19.8638373 5.63404255,18.3659574 C4.13616272,16.8680776 3.27801528,15.0737693 3.05957447,12.9829787 L1,12.9829787 L1,11.0170213 L3.05957447,11.0170213 C3.27801528,8.92623068 4.13616272,7.13192238 5.63404255,5.63404255 C7.13192238,4.13616272 8.92623068,3.27801528 11.0170213,3.05957447 L11.0170213,1 L12.9829787,1 L12.9829787,3.05957447 C15.0737693,3.27801528 16.8680776,4.13616272 18.3659574,5.63404255 C19.8638373,7.13192238 20.7219847,8.92623068 20.9404255,11.0170213 Z M9.19148936,9.19148936 C9.97163511,8.41134362 10.907796,8.0212766 12,8.0212766 C13.092204,8.0212766 14.0283649,8.41134362 14.8085106,9.19148936 C15.5886564,9.97163511 15.9787234,10.907796 15.9787234,12 C15.9787234,13.092204 15.5886564,14.0283649 14.8085106,14.8085106 C14.0283649,15.5886564 13.092204,15.9787234 12,15.9787234 C10.907796,15.9787234 9.97163511,15.5886564 9.19148936,14.8085106 C8.41134362,14.0283649 8.0212766,13.092204 8.0212766,12 C8.0212766,10.907796 8.41134362,9.97163511 9.19148936,9.19148936 Z" id="my_location" fill="currentColor"></path>
    </g>
</svg>

<svg xmlns="http://www.w3.org/2000/svg" viewBox="0 0 24 24"><path d="M7.038 16.962c1.373 1.342 3.027 2.012 4.962 2.012 1.935 0 3.58-.678 4.938-2.036 1.358-1.357 2.036-3.003 2.036-4.938 0-1.935-.678-3.58-2.036-4.938C15.581 5.704 13.935 5.026 12 5.026c-1.935 0-3.58.678-4.938 2.036C5.704 8.419 5.026 10.065 5.026 12c0 1.935.67 3.589 2.012 4.962zm13.902-5.945H23v1.966h-2.06c-.218 2.09-1.076 3.885-2.574 5.383-1.498 1.498-3.292 2.356-5.383 2.574V23h-1.966v-2.06c-2.09-.218-3.885-1.076-5.383-2.574-1.498-1.498-2.356-3.292-2.574-5.383H1v-1.966h2.06c.218-2.09 1.076-3.885 2.574-5.383 1.498-1.498 3.292-2.356 5.383-2.574V1h1.966v2.06c2.09.218 3.885 1.076 5.383 2.574 1.498 1.498 2.356 3.292 2.574 5.383zM9.191 9.191c.78-.78 1.717-1.17 2.809-1.17s2.028.39 2.809 1.17c.78.78 1.17 1.717 1.17 2.809s-.39 2.028-1.17 2.809c-.78.78-1.717 1.17-2.809 1.17s-2.028-.39-2.809-1.17c-.78-.78-1.17-1.717-1.17-2.809s.39-2.028 1.17-2.809z" fill="currentColor" fill-rule="evenodd"/></svg>
